Yaru++/apps/scalable/lightsoff.svg

<svg enable-background="new" height="256" viewBox="0 0 256 256" width="256" xmlns="http://www.w3.org/2000/svg" xmlns:xlink="http://www.w3.org/1999/xlink">
  <linearGradient id="linearGradient4358" gradientUnits="userSpaceOnUse" x1="88" x2="488" y1="88" y2="488">
    <stop offset="0" stop-opacity=".588235"/>
    <stop offset="1" stop-opacity=".205556"/>
  </linearGradient>
  <filter id="filter4380" color-interpolation-filters="sRGB" height="1.088" width="1.106" x="-.05" y="-.04">
    <feGaussianBlur stdDeviation="8.48"/>
  </filter>
  <filter id="filter4346" color-interpolation-filters="sRGB" height="1.022" width="1.026" x="-.01" y="-.01">
    <feGaussianBlur stdDeviation="2.12"/>
  </filter>
  <path d="m141.84323 74c-70.59344 0-78.18921 7.250835-77.84323 77.98706v146.01294 146.01294c-.34598 70.73623 7.24979 77.98706 77.84323 77.98706h292.31354c70.59344 0 79.78033-7.27652 77.84323-77.98706v-146.01294-146.01294c0-70.737067-7.24979-77.98706-77.84323-77.98706z" filter="url(#filter4346)" opacity=".1" transform="matrix(.5 0 0 .5 -14.116488 -20.825537)"/>
  <path d="m141.84323 74c-70.59344 0-78.18921 7.250835-77.84323 77.98706v146.01294 146.01294c-.34598 70.73623 7.24979 77.98706 77.84323 77.98706h292.31354c70.59344 0 79.78033-7.27652 77.84323-77.98706v-146.01294-146.01294c0-70.737067-7.24979-77.98706-77.84323-77.98706z" fill="url(#linearGradient4358)" filter="url(#filter4380)" opacity=".3" transform="matrix(.5 0 0 .5 -14.116488 -20.825235)"/>
  <path d="m55.695112 13.174464c-36.098811 0-39.983003 3.690159-39.806081 39.689839v74.310167 74.31016c-.176922 35.99969 3.70727 39.68984 39.806081 39.68984h148.387318c36.09881 0 40.77464-3.70276 39.80608-39.68984v-74.31016-74.310167c0-36.00011-3.70727-39.689839-39.80608-39.689839z" opacity=".2"/>
  <path d="m203.18279 15.087233c35.29673 0 39.09461 3.625419 38.92162 38.993529v73.006478 73.00647c.17299 35.36812-3.62489 38.99353-38.92162 38.99353h-146.156752c-35.296716 0-38.921616-3.625-38.921616-38.99353v-73.00647-73.006478c0-35.36853 3.6249-38.993529 38.921616-38.993529z" fill="#343434"/>
  <path d="m242.10352 127.08789v-73.007812c.02162-4.421014-.0176-8.346107-.17383-11.830078s-.42948-6.526832-.8711-9.183594c-.44161-2.656762-1.05218-4.925849-1.88671-6.865234-.41727-.969693-.89013-1.857027-1.42579-2.667969s-1.13329-1.546969-1.80078-2.212891c-.66749-.665921-1.40403-1.262246-2.21679-1.796874-.81277-.534629-1.70235-1.006763-2.67383-1.423829-1.94297-.834132-4.21653-1.446323-6.875-1.892578-2.65848-.446255-5.70208-.72632-9.1836-.894531-3.48151-.168211-7.4004-.224609-11.8125-.224609h-73.07617v111.999999z" fill="#1a7fd4" transform="translate(0 0)"/>
  <path d="m18.103516 127.08789v73.00586c0 4.42107.058505 8.34608.226562 11.83008s.446905 6.52682.892578 9.18359 1.057779 4.92781 1.890625 6.86719c.416424.96969.888116 1.85703 1.421875 2.66797s1.12818 1.54502 1.792969 2.21094c.664789.66591 1.39947 1.26225 2.208984 1.79687.809515.53462 1.694175 1.00677 2.66211 1.42383 1.935869.83411 4.203751 1.44829 6.855469 1.89453 2.651717.44624 5.686938.72633 9.164062.89453s7.394551.22461 11.806641.22461h73.082029v-112z" fill="#1a7fd4" transform="translate(0 0)"/>
  <path d="m56.810792 239.17447c-35.296731 0-39.094875-3.62603-38.921885-38.99414v-2c-.17299 35.36811 3.625154 38.99414 38.921885 38.99414h146.156238c35.29673 0 38.92188-3.62561 38.92188-38.99414v2c0 35.36853-3.62515 38.99414-38.92188 38.99414z" opacity=".2"/>
  <path d="m56.805392 15.174464c-35.296728 0-39.09487 3.626029-38.92188 38.994139v2c-.17299-35.36811 3.625152-38.99414 38.92188-38.99414h146.156238c35.29673 0 38.92188 3.62561 38.92188 38.99414v-2c0-35.36853-3.62515-38.994139-38.92188-38.994139z" fill="#fff" opacity=".3"/>
</svg>

<svg xmlns="http://www.w3.org/2000/svg" xmlns:xlink="http://www.w3.org/1999/xlink" style="enable-background:new" width="256" height="256" version="1.0" viewBox="0 0 256 256">
 <title id="title4162">
  Adwaita Icon Template
 </title>
 <defs>
  <linearGradient id="linearGradient1115">
   <stop id="stop1103" offset="0" style="stop-color:#d5d3cf"/>
   <stop style="stop-color:#e3e2df" id="stop1105" offset=".038"/>
   <stop style="stop-color:#c0bfbc" id="stop1107" offset=".077"/>
   <stop style="stop-color:#c0bfbc" id="stop1109" offset=".923"/>
   <stop style="stop-color:#e3e2df" id="stop1111" offset=".962"/>
   <stop id="stop1113" offset="1" style="stop-color:#d5d3cf"/>
  </linearGradient>
  <linearGradient id="linearGradient6058">
   <stop style="stop-color:#ffffff" id="stop6054" offset="0"/>
   <stop style="stop-color:#f6f5f4" id="stop6056" offset="1"/>
  </linearGradient>
  <linearGradient id="paint3_linear-2-6-5" x2="1" gradientTransform="matrix(0,6,-12,0,-64,209.99687)" gradientUnits="userSpaceOnUse">
   <stop id="stop91-0-7-4" stop-color="#C01C27"/>
   <stop id="stop93-2-5-7" offset="1" stop-color="#E01B24"/>
  </linearGradient>
  <linearGradient id="linearGradient1097" x1="43.844" x2="-60" y1="234" y2="234" gradientTransform="matrix(1.0015061,0,0,0.99993452,72.09037,56.015192)" gradientUnits="userSpaceOnUse" xlink:href="#linearGradient1115"/>
  <radialGradient id="radialGradient1099" cx="-24.239" cy="225.596" r="24" fx="-24.239" fy="225.596" gradientTransform="matrix(1.757743,-9.5621778e-8,3.7652438e-8,1.9495846,106.60563,-336.54495)" gradientUnits="userSpaceOnUse" xlink:href="#linearGradient6058"/>
  <linearGradient id="linearGradient1383" x2="1" gradientTransform="matrix(0,6,-12,0,-264,209.99687)" gradientUnits="userSpaceOnUse" xlink:href="#paint3_linear-2-6-5"/>
  <linearGradient id="linearGradient4358" x1="88" x2="488" y1="88" y2="488" gradientUnits="userSpaceOnUse" xlink:href="#linearGradient4360"/>
  <linearGradient id="linearGradient4360">
   <stop id="stop4362" offset="0" style="stop-color:#000000;stop-opacity:0.58823532"/>
   <stop id="stop4366" offset="1" style="stop-color:#000000;stop-opacity:0.20555556"/>
  </linearGradient>
  <filter style="color-interpolation-filters:sRGB" id="filter4380" width="1.106" height="1.088" x="-.05" y="-.04">
   <feGaussianBlur id="feGaussianBlur4382" stdDeviation="8.48"/>
  </filter>
  <filter style="color-interpolation-filters:sRGB" id="filter4346" width="1.026" height="1.022" x="-.01" y="-.01">
   <feGaussianBlur id="feGaussianBlur4348" stdDeviation="2.12"/>
  </filter>
  <linearGradient id="a">
   <stop id="stop2" offset="0" stop-color="#68676b"/>
   <stop id="stop4" offset=".8" stop-color="#424048"/>
   <stop id="stop6" offset="1" stop-color="#241f31"/>
  </linearGradient>
  <radialGradient id="d" cx="279.422" cy="446.483" r="224" fx="279.422" fy="446.483" gradientTransform="matrix(1.34416 .0006 -.00062 1.38763 -121.22 -718.103)" gradientUnits="userSpaceOnUse" xlink:href="#a"/>
  <linearGradient id="e" x1="43.844" x2="-60" y1="234" y2="234" gradientTransform="matrix(1.0015,0,0,0.99993,-22.825254,146.59127)" gradientUnits="userSpaceOnUse" xlink:href="#linearGradient1115"/>
  <filter style="color-interpolation-filters:sRGB" id="filter906" width="1.046" height="1.05" x="-.02" y="-.03">
   <feGaussianBlur id="feGaussianBlur922" stdDeviation="2.32"/>
  </filter>
  <linearGradient id="linearGradient878" x1="32" x2="272" y1="156" y2="156" gradientTransform="matrix(0.23900574,0.41397008,-0.41397008,0.23900574,-19.523641,133.24274)" gradientUnits="userSpaceOnUse">
   <stop id="stop917" offset="0" style="stop-color:#2f5fdd"/>
   <stop id="stop919" offset="1" style="stop-color:#5884f4"/>
  </linearGradient>
  <linearGradient id="linearGradient1108" x1="296" x2="296" y1="-212" y2="236" gradientUnits="userSpaceOnUse">
   <stop id="stop905" offset="0" style="stop-color:#ffffff"/>
   <stop id="stop907" offset=".125" style="stop-color:#ffffff;stop-opacity:.09803922"/>
   <stop id="stop909" offset=".925" style="stop-color:#000000;stop-opacity:.09803922"/>
   <stop id="stop911" offset="1" style="stop-color:#000000;stop-opacity:.49803922"/>
  </linearGradient>
  <clipPath id="clipPath1082-3-3">
   <path d="M 361.9375,-212 C 507.2348,-212 528,-191.28677 528,-46.125 V 70.125 C 528,215.28618 507.2348,236 361.9375,236 H 214.0625 C 68.7652,236 48,215.28618 48,70.125 V -46.125 C 48,-191.28677 68.7652,-212 214.0625,-212 Z" style="fill:#8c59d9"/>
  </clipPath>
  <filter style="color-interpolation-filters:sRGB" id="filter4569" width="1.023" height="1.025" x="-.01" y="-.01">
   <feGaussianBlur id="feGaussianBlur2442" stdDeviation="1.16"/>
  </filter>
  <filter style="color-interpolation-filters:sRGB" id="filter958" width="1.046" height="1.05" x="-.02" y="-.03">
   <feGaussianBlur id="feGaussianBlur2439" stdDeviation="2.32"/>
  </filter>
  <clipPath id="clipPath1082-3-69">
   <path d="M 361.9375,-212 C 507.2348,-212 528,-191.28677 528,-46.125 V 70.125 C 528,215.28618 507.2348,236 361.9375,236 H 214.0625 C 68.7652,236 48,215.28618 48,70.125 V -46.125 C 48,-191.28677 68.7652,-212 214.0625,-212 Z" style="fill:#8c59d9"/>
  </clipPath>
  <filter style="color-interpolation-filters:sRGB" id="filter939" width="1.046" height="1.05" x="-.02" y="-.03">
   <feGaussianBlur id="feGaussianBlur4784" stdDeviation="2.32"/>
  </filter>
  <filter style="color-interpolation-filters:sRGB" id="filter4569-3" width="1.023" height="1.025" x="-.01" y="-.01">
   <feGaussianBlur id="feGaussianBlur4781" stdDeviation="1.16"/>
  </filter>
  <clipPath id="clipPath1082-3-361">
   <path d="M 361.9375,-212 C 507.2348,-212 528,-191.28677 528,-46.125 V 70.125 C 528,215.28618 507.2348,236 361.9375,236 H 214.0625 C 68.7652,236 48,215.28618 48,70.125 V -46.125 C 48,-191.28677 68.7652,-212 214.0625,-212 Z" style="fill:#8c59d9"/>
  </clipPath>
 </defs>
 <path style="opacity:0.1;filter:url(#filter4346)" d="M 141.84323,74 C 71.24979,74 63.65402,81.250835 64,151.98706 V 298 444.01294 C 63.65402,514.74917 71.24979,522 141.84323,522 H 434.15677 C 504.75021,522 513.9371,514.72348 512,444.01294 V 298 151.98706 C 512,81.249993 504.75021,74 434.15677,74 Z" transform="matrix(0.5,0,0,0.5,-14.116488,-20.825537)"/>
 <path d="M 141.84323,74 C 71.24979,74 63.65402,81.250835 64,151.98706 V 298 444.01294 C 63.65402,514.74917 71.24979,522 141.84323,522 H 434.15677 C 504.75021,522 513.9371,514.72348 512,444.01294 V 298 151.98706 C 512,81.249993 504.75021,74 434.15677,74 Z" transform="matrix(0.5,0,0,0.5,-14.116488,-20.825235)" style="opacity:0.3;fill:url(#linearGradient4358);filter:url(#filter4380)"/>
 <path style="opacity:0.2" d="m 55.695112,13.174464 c -36.098811,0 -39.983003,3.690159 -39.806081,39.689839 v 74.310167 74.31016 c -0.176922,35.99969 3.70727,39.68984 39.806081,39.68984 H 204.08243 c 36.09881,0 40.77464,-3.70276 39.80608,-39.68984 V 127.17447 52.864303 c 0,-36.00011 -3.70727,-39.689839 -39.80608,-39.689839 z"/>
 <path style="fill:#343434" d="m 203.18279,15.087233 c 35.29673,0 39.09461,3.625419 38.92162,38.993529 v 73.006478 73.00647 c 0.17299,35.36812 -3.62489,38.99353 -38.92162,38.99353 H 57.026038 c -35.296716,0 -38.921616,-3.625 -38.921616,-38.99353 V 127.08724 54.080762 c 0,-35.36853 3.6249,-38.993529 38.921616,-38.993529 z"/>
 <g transform="translate(-290.71186,-95.067799)">
  <g transform="translate(0,0.0872355)">
   <path style="fill:#1a7fd4" d="M 242.10352 127.08789 L 242.10352 54.080078 C 242.12514 49.659064 242.08592 45.733971 241.92969 42.25 C 241.77346 38.766029 241.50021 35.723168 241.05859 33.066406 C 240.61698 30.409644 240.00641 28.140557 239.17188 26.201172 C 238.75461 25.231479 238.28175 24.344145 237.74609 23.533203 C 237.21043 22.722261 236.6128 21.986234 235.94531 21.320312 C 235.27782 20.654391 234.54128 20.058066 233.72852 19.523438 C 232.91575 18.988809 232.02617 18.516675 231.05469 18.099609 C 229.11172 17.265477 226.83816 16.653286 224.17969 16.207031 C 221.52121 15.760776 218.47761 15.480711 214.99609 15.3125 C 211.51458 15.144289 207.59569 15.087891 203.18359 15.087891 L 130.10742 15.087891 L 130.10742 127.08789 L 242.10352 127.08789 z" transform="translate(290.71186,94.980563)"/>
   <path style="fill:#1a7fd4" d="M 18.103516 127.08789 L 18.103516 200.09375 C 18.103516 204.51482 18.162021 208.43983 18.330078 211.92383 C 18.498135 215.40783 18.776983 218.45065 19.222656 221.10742 C 19.668329 223.76419 20.280435 226.03523 21.113281 227.97461 C 21.529705 228.9443 22.001397 229.83164 22.535156 230.64258 C 23.068915 231.45352 23.663336 232.1876 24.328125 232.85352 C 24.992914 233.51943 25.727595 234.11577 26.537109 234.65039 C 27.346624 235.18501 28.231284 235.65716 29.199219 236.07422 C 31.135088 236.90833 33.40297 237.52251 36.054688 237.96875 C 38.706405 238.41499 41.741626 238.69508 45.21875 238.86328 C 48.695874 239.03148 52.613301 239.08789 57.025391 239.08789 L 130.10742 239.08789 L 130.10742 127.08789 L 18.103516 127.08789 z" transform="translate(290.71186,94.980563)"/>
  </g>
 </g>
 <path style="opacity:0.2" d="m 56.810792,239.17447 c -35.296731,0 -39.094875,-3.62603 -38.921885,-38.99414 v -2 c -0.17299,35.36811 3.625154,38.99414 38.921885,38.99414 H 202.96703 c 35.29673,0 38.92188,-3.62561 38.92188,-38.99414 v 2 c 0,35.36853 -3.62515,38.99414 -38.92188,38.99414 z"/>
 <path style="opacity:0.3;fill:#ffffff" d="m 56.805392,15.174464 c -35.296728,0 -39.09487,3.626029 -38.92188,38.994139 v 2 c -0.17299,-35.36811 3.625152,-38.99414 38.92188,-38.99414 H 202.96163 c 35.29673,0 38.92188,3.62561 38.92188,38.99414 v -2 c 0,-35.36853 -3.62515,-38.994139 -38.92188,-38.994139 z"/>
</svg>
